X:1153
T:Clinch Mountain Backstep
O:england
S:Bluehrass and Old Time Mandolin
M:4/4
L:1/8
K:Am
aa|aa g2 e2 eg|edcc A2 aa|aagg e2 d2|e2 ee eeaa|
aggg eeeg|edcc A2 GA|AAAA cAGB|A2ee ee:|]
E2|GAAA AAcc|ccAA GG E2|\
M:6/4
L:1/8
GAAA AAcc cc d2|\
M:4/4
L:1/8
e2 ee ee aa|
aa g2 e2 eg|edcc A2 GA|AAAA cAGB|A2 ee ee:|]


